X: 18
T: ALL IN A GARDEN GREEN
B: "FIFTY OLD ENGLISH FOLK DANCE AIRS", Edgar H. Hunt ed., Schott & Co. Ltd. pub., London 1939
Z: 2004-2014 John Chambers <jc:trillian.mit.edu>
N: This tune is sometimes used for the dance THE MAID IN THE MOON.
M: 2/2
L: 1/8
K: G
|:\
d4 d2d2 | B3c d2d2 |\
e2d2 c2B2 | A6 B2 |\
c3d (ef)g2 | G3A (Bc)d2 |
c2B2 (AG)AB | G8 :|\
|:\
d2dd d2d2 | e2f2 g4 |\
B2BB B2G2 | A2B2 c4 |
B3A (GA)B2 | c3B (AB)c2 |\
d3c (Bc)d2 | e3d (cd)(Bc) |\
A2G2 G2F2 | G8 :|

%%sep 1 1 500
%%sep 1 1 500
